X:200
T: Humors of Ross
T: Tart ar an \'Ol
S: B.Breathnach: "Ceol Rince na hEireann" II/47
Z: B.Black
L: 1/8
M: 6/8
R: jig
K: Dmix
B|: dBA GBD|EDE G2d|edB cBA|BGE E2B|
dBA G2B|EDE G2B|AGE A2B|1 GED dge :|2 GED D2||
d|BBB dB/c/d|eee dBG|BAB dB/c/d|edB A2d|
BGG dB/c/d|eee dBG|AGE A2B|GED D2D|
BGB dB/c/d|edB dBG|BAB dB/c/d|edB A2d|
BGB deg|bge dBG|AGE A2B|GED D2||

